lib/brands/icons/codepen.svg

<svg xmlns="http://www.w3.org/2000/svg" fill="none" aria-hidden="true" viewBox="0 0 48 48"><g id="codepen-Icon"><path id="Codepen" fill="#0B0B0A" fill-rule="evenodd" d="M39.9822 18.9144C39.9843 18.9246 39.9864 18.9351 39.988 18.946C39.996 19.004 40 19.064 40 19.125V28.875C40 28.935 39.996 28.995 39.988 29.055C39.9866 29.064 39.9847 29.0732 39.9828 29.0825L39.9797 29.0981L39.977 29.114C39.97 29.153 39.963 29.191 39.953 29.229C39.9516 29.2343 39.9501 29.2396 39.9484 29.2448C39.9456 29.2537 39.9425 29.2624 39.9395 29.2711L39.935 29.284L39.9263 29.3102C39.9168 29.3387 39.9071 29.3679 39.896 29.397C39.887 29.419 39.876 29.441 39.865 29.463C39.851 29.494 39.836 29.524 39.818 29.555C39.81 29.5689 39.8012 29.5829 39.7923 29.5968L39.779 29.618C39.761 29.647 39.742 29.674 39.721 29.701C39.706 29.722 39.69 29.742 39.674 29.761C39.652 29.786 39.629 29.812 39.605 29.835L39.6041 29.836C39.5864 29.8546 39.5697 29.8723 39.551 29.889C39.525 29.912 39.499 29.934 39.473 29.955L39.4541 29.9696C39.4398 29.9806 39.4256 29.9916 39.411 30.002C39.407 30.0045 39.4033 30.0075 39.3995 30.0105C39.3958 30.0135 39.392 30.0165 39.388 30.019L24.763 39.769C24.532 39.923 24.266 40 24 40C23.734 40 23.468 39.923 23.237 39.769L8.613 30.019C8.609 30.0165 8.60525 30.0135 8.6015 30.0105C8.59775 30.0075 8.594 30.0045 8.59 30.002C8.568 29.987 8.548 29.971 8.528 29.955C8.501 29.934 8.475 29.912 8.45 29.889C8.431 29.872 8.413 29.854 8.395 29.835C8.371 29.812 8.348 29.786 8.327 29.761C8.31 29.742 8.294 29.722 8.279 29.701C8.259 29.674 8.24 29.647 8.222 29.618C8.208 29.597 8.195 29.576 8.182 29.555C8.165 29.524 8.15 29.494 8.135 29.463L8.12478 29.441C8.11789 29.4263 8.111 29.4117 8.105 29.397C8.09239 29.3664 8.08222 29.3358 8.07228 29.3059L8.069 29.296L8.06251 29.2762C8.05738 29.2607 8.0522 29.2451 8.048 29.229C8.038 29.191 8.031 29.153 8.024 29.114L8.0207 29.0982C8.01757 29.0835 8.01447 29.069 8.013 29.055C8.005 28.995 8 28.935 8 28.875V19.125C8 19.064 8.005 19.004 8.013 18.946C8.01448 18.9305 8.01759 18.9161 8.02073 18.9015L8.024 18.886C8.031 18.847 8.038 18.808 8.048 18.771C8.0522 18.7549 8.05738 18.7393 8.06251 18.7238L8.069 18.704C8.08 18.67 8.091 18.637 8.105 18.604C8.11378 18.5816 8.12447 18.5591 8.13427 18.5385L8.135 18.537C8.15 18.505 8.165 18.475 8.182 18.446C8.195 18.424 8.208 18.403 8.222 18.382C8.24 18.353 8.259 18.325 8.279 18.298C8.294 18.278 8.31 18.258 8.327 18.239C8.348 18.213 8.371 18.188 8.395 18.164L8.40579 18.1531C8.42022 18.1385 8.4348 18.1238 8.45 18.111C8.475 18.088 8.501 18.066 8.528 18.045C8.548 18.029 8.568 18.013 8.59 17.998C8.594 17.9955 8.59775 17.9925 8.6015 17.9895C8.60524 17.9865 8.60901 17.9835 8.613 17.981L23.237 8.231C23.7 7.923 24.301 7.923 24.763 8.231L39.388 17.981C39.392 17.9835 39.3958 17.9865 39.3995 17.9895L39.4027 17.9921C39.4054 17.9942 39.4081 17.9962 39.411 17.998L39.4255 18.0086L39.4374 18.0176L39.473 18.045C39.499 18.066 39.525 18.088 39.551 18.111C39.5646 18.1224 39.5771 18.1354 39.5897 18.1484L39.605 18.164C39.629 18.188 39.652 18.213 39.674 18.239C39.69 18.258 39.706 18.278 39.721 18.298C39.742 18.325 39.761 18.353 39.779 18.382L39.7899 18.3994C39.7996 18.4147 39.8093 18.4301 39.818 18.446C39.836 18.475 39.851 18.505 39.865 18.537C39.876 18.558 39.887 18.581 39.896 18.604C39.909 18.637 39.92 18.67 39.931 18.704C39.9336 18.7122 39.9365 18.7204 39.9394 18.7287C39.9443 18.7426 39.9493 18.7566 39.953 18.771C39.963 18.808 39.97 18.847 39.977 18.886L39.9792 18.8992L39.9822 18.9144ZM36.149 19.127L25.375 11.945V18.358L31.337 22.346L36.149 19.127ZM22.625 11.945V18.358L16.664 22.346L11.851 19.127L22.625 11.945ZM14.191 24L10.75 21.699V26.301L14.191 24ZM22.625 36.055L11.851 28.873L16.664 25.655L22.625 29.642V36.055ZM19.137 24L24 27.253L28.864 24L24 20.747L19.137 24ZM25.375 36.055V29.642L31.337 25.655L36.149 28.873L25.375 36.055ZM33.81 24L37.25 26.301V21.699L33.81 24Z" clip-rule="evenodd"/></g></svg>

<svg xmlns="http://www.w3.org/2000/svg" fill="none" aria-hidden="true" viewBox="0 0 48 48"><path fill="#0B0B0A" fill-rule="evenodd" d="m39.982 18.914.006.032c.008.058.012.118.012.179v9.75c0 .06-.004.12-.012.18l-.005.027-.003.016-.003.016a1.465 1.465 0 0 1-.029.13l-.008.027-.005.013-.009.026-.03.087c-.009.022-.02.044-.031.066a1 1 0 0 1-.073.134l-.013.021a.949.949 0 0 1-.058.083.959.959 0 0 1-.116.134v.001c-.019.019-.035.036-.054.053a2.28 2.28 0 0 1-.078.066l-.019.015-.043.032-.011.009a.118.118 0 0 1-.012.008l-14.625 9.75a1.374 1.374 0 0 1-1.526 0l-14.624-9.75a.124.124 0 0 1-.011-.008l-.012-.009a1.235 1.235 0 0 1-.263-.241 1.216 1.216 0 0 1-.105-.143l-.04-.063a1.998 1.998 0 0 1-.047-.092l-.01-.022-.02-.044c-.013-.03-.023-.061-.033-.091l-.003-.01-.006-.02c-.006-.015-.01-.03-.015-.047a1.465 1.465 0 0 1-.024-.115l-.003-.016c-.003-.014-.007-.029-.008-.043a1.362 1.362 0 0 1-.013-.18v-9.75c0-.061.005-.121.013-.179.001-.016.005-.03.008-.045l.003-.015c.007-.039.014-.078.024-.115.004-.016.01-.032.015-.047l.006-.02a1.192 1.192 0 0 1 .065-.166l.001-.001a1.11 1.11 0 0 1 .087-.155 1.237 1.237 0 0 1 .173-.218l.01-.01a1.235 1.235 0 0 1 .184-.155l.013-.01a.124.124 0 0 1 .011-.008l14.624-9.75a1.376 1.376 0 0 1 1.526 0l14.625 9.75a.118.118 0 0 1 .012.008l.003.003a.096.096 0 0 0 .008.006l.014.01.012.01.036.027.078.066c.014.011.026.024.039.037l.015.016a1.226 1.226 0 0 1 .174.218l.01.017.029.047a.71.71 0 0 1 .047.091.685.685 0 0 1 .031.067c.013.033.024.066.035.1l.008.025.014.042c.01.037.017.076.024.115l.002.013.003.015Zm-3.833.213-10.774-7.182v6.413l5.962 3.988 4.812-3.219Zm-13.524-7.182v6.413l-5.961 3.988-4.813-3.219 10.774-7.182ZM14.191 24l-3.441-2.301v4.602L14.191 24Zm8.434 12.055-10.774-7.182 4.813-3.218 5.961 3.987v6.413ZM19.137 24 24 27.253 28.864 24 24 20.747 19.137 24Zm6.238 12.055v-6.413l5.962-3.987 4.812 3.218-10.774 7.182ZM33.81 24l3.44 2.301v-4.602L33.81 24Z" clip-rule="evenodd"/></svg>
